X: 13579
T: Flying Magpies, The
R: slip jig
M: 9/8
K: Adorian
|:A2e ABc cde|edc dcB cBA|
Eed cBA E2A|1 ^GAB Eed cdB:|2 ^GFE BAG ef^g||
a2e cde ged|e2b fgd BcG|AdB cde ged|ecc efg ^gab|
~a2e cde ged|e2b fgd BcG|edc dcB cBA|^GAB Eed cdB||

